outputs/icons/social/money_pound_round.svg

<svg xmlns="http://www.w3.org/2000/svg" width="1200" height="1200" fill="none"><path fill="#000" d="M384.352 1100c-46.587 0-84.352-37.765-84.352-84.35a42.18 42.18 0 0 1 20.316-36.07l1.982-1.2q22.296-13.516 48.648-39.865c17.568-17.57 33.559-40.09 47.973-67.57 14.415-27.475 21.622-59.235 21.622-95.27q0-14.865-2.027-28.38-2.027-13.509-4.73-25.675h-79.73c-29.853 0-54.054-24.2-54.054-54.05 0-29.855 24.201-54.055 54.054-54.055h27.027q-28.378-44.594-54.73-93.92Q300.001 470.27 300 397.298q0-124.326 86.486-210.811Q472.974 100 597.295 100q95.949 0 170.275 52.703c34.82 24.691 62.74 54.498 83.77 89.421 15.06 25.008 1.54 56.048-25.385 67.327-28.19 11.811-59.97-2.954-78.58-27.203q-17.13-22.325-41.295-39.681-47.969-34.459-108.785-34.459-78.376 0-133.781 55.406-55.406 55.404-55.406 133.784 0 64.865 32.433 108.107 32.432 43.244 66.214 108.11H678.38c29.85 0 54.05 24.2 54.05 54.055 0 29.85-24.2 54.05-54.05 54.05H544.595c1.8 8.11 2.93 16.67 3.38 25.675q.675 13.515.675 28.38-.001 67.567-23.65 121.62-23.648 54.059-57.433 94.595H732.43c36.04 0 63.515-9.46 82.435-28.375a135 135 0 0 0 11.925-13.65c20.395-26.77 55.98-44.965 86.085-29.915 21.12 10.56 33.315 34.32 24.22 56.115q-20.055 48.059-64.8 80.015Q810.811 1100 732.43 1100z"/></svg>

<svg width="1200" height="1200" viewBox="0 0 1200 1200" fill="none" xmlns="http://www.w3.org/2000/svg"><path d="M384.352 1100C337.765 1100 300 1062.235 300 1015.65C300 1000.9 307.704 987.225 320.316 979.58L322.298 978.38C337.162 969.37 353.378 956.08 370.946 938.515C388.514 920.945 404.505 898.425 418.919 870.945C433.334 843.47 440.541 811.71 440.541 775.675C440.541 765.765 439.865 756.305 438.514 747.295C437.162 738.29 435.586 729.73 433.784 721.62H354.054C324.201 721.62 300 697.42 300 667.57C300 637.715 324.201 613.515 354.054 613.515H381.081C362.162 583.785 343.919 552.48 326.351 519.595C308.784 486.712 300 445.946 300 397.298C300 314.414 328.829 244.144 386.486 186.487C444.144 128.829 514.415 100 597.295 100C661.26 100 718.02 117.567 767.57 152.703C802.39 177.394 830.31 207.201 851.34 242.124C866.4 267.132 852.88 298.172 825.955 309.451C797.765 321.262 765.985 306.497 747.375 282.248C735.955 267.365 722.19 254.137 706.08 242.567C674.1 219.595 637.84 208.108 597.295 208.108C545.045 208.108 500.45 226.577 463.514 263.514C426.577 300.45 408.108 345.045 408.108 397.298C408.108 440.541 418.919 476.577 440.541 505.405C462.162 534.235 484.234 570.27 506.755 613.515H678.38C708.23 613.515 732.43 637.715 732.43 667.57C732.43 697.42 708.23 721.62 678.38 721.62H544.595C546.395 729.73 547.525 738.29 547.975 747.295C548.425 756.305 548.65 765.765 548.65 775.675C548.65 820.72 540.765 861.26 525 897.295C509.235 933.335 490.09 964.865 467.567 991.89H732.43C768.47 991.89 795.945 982.43 814.865 963.515C819.14 959.24 823.115 954.69 826.79 949.865C847.185 923.095 882.77 904.9 912.875 919.95C933.995 930.51 946.19 954.27 937.095 976.065C923.725 1008.105 902.125 1034.775 872.295 1056.08C831.305 1085.36 784.685 1100 732.43 1100H384.352Z" fill="#1D1E23"/></svg>
